Newaita-dark/actions/16/amarok_change_language.svg

<svg height="16" viewBox="0 0 16 16" width="16" xmlns="http://www.w3.org/2000/svg"><g fill="#e0e0e0"><path d="m5.292969 6.738281c-.023438 0-.046875.003907-.074219.003907-.007812 0-.015625 0-.019531 0-.019531 0-.035157 0-.050781 0-.007813 0-.015626 0-.027344.003906-.011719 0-.027344 0-.042969 0-.007813 0-.019531 0-.027344.003906-.015625 0-.027343 0-.042969 0-.007812.003906-.019531.003906-.027343.003906-.015625 0-.027344.003906-.042969.003906-.007812 0-.015625 0-.027344.003907-.011718 0-.027344 0-.039062.003906-.011719 0-.019532 0-.027344.003906-.015625 0-.027344.003907-.042969.003907-.007812.003906-.019531.003906-.027343.003906-.011719.003906-.027344.003906-.042969.007812-.007813 0-.015625.003906-.023438.003906-.015625.003907-.03125.003907-.042969.007813-.007812 0-.015624.003906-.023437.003906-.015625.003907-.03125.003907-.046875.007813-.007812.003906-.011719.003906-.019531.003906-.019531.003906-.035157.007812-.054688.011719-.003906.003906-.007812.003906-.011719.003906-.066406.015625-.128906.03125-.195312.050781 0 0-.003906 0-.003906.003906-.019532.003907-.039063.011719-.058594.015626-.003906 0-.007812.003906-.011719.003906-.015625.003906-.035156.011718-.050781.015625-.003906.003906-.007812.003906-.011719.003906-.015625.007813-.03125.011719-.050781.019531-.003906 0-.007812.003906-.011719.003906-.015625.007813-.03125.011719-.046875.019532-.003906 0-.007812.003906-.011718.003906-.015626.007812-.035157.011719-.050782.019531-.003906.003907-.007812.003907-.007812.003907-.019532.007812-.035156.015624-.050782.023437-.003906 0-.007812 0-.007812.003906-.019531.007813-.035156.015625-.054688.023438h-.003906c-.019531.011719-.039062.019531-.054687.03125-.152344.074219-.296875.164062-.421875.261719-.015625.011718-.03125.023437-.046875.035156-.015625.011718-.03125.027344-.046875.039062-.414063.347656-.664063.808594-.664063 1.316406v5.953126h1.324219v-2.648438h2.644531v2.648438h1.324219v-4.632813h-1.324219v.664063h-2.644531v-1.984376c0-.292968.375-.539062.898438-.628906.011718 0 .019531-.003906.03125-.003906.125-.019531.257812-.03125.394531-.03125s.269531.011719.394531.03125c.007812 0 .019531.003906.03125.003906.082031.015625.160156.03125.234375.054688v-1.351563c-.003906 0-.003906 0-.007813 0-.007812 0-.015624-.003906-.023437-.003906-.015625-.003906-.03125-.003906-.046875-.007813-.007812 0-.015625-.003906-.023438-.003906-.011718-.003906-.027343-.003906-.042968-.007812-.007813 0-.015625 0-.023438-.003906-.015625 0-.027344-.003907-.042968-.003907-.007813-.003906-.019532-.003906-.027344-.003906-.015625-.003906-.027344-.003906-.042969-.003906-.007813-.003907-.015625-.003907-.027344-.003907s-.027343-.003906-.039062-.003906-.019531 0-.03125-.003906c-.011719 0-.027344 0-.039063 0-.011718-.003906-.019531-.003906-.03125-.003906-.011718 0-.027344 0-.042968 0-.007813-.003906-.015626-.003906-.027344-.003906-.015625 0-.03125 0-.046875 0-.007813 0-.015625 0-.023438 0-.023437 0-.046875-.003907-.070312-.003907zm0 0"/><path d="m9.921875 1.449219v2.3125h-3.308594v1.324219h2.75c-.742187 1.035156-1.53125 1.824218-2.550781 2.84375l.929688.929687c.808593-.808594 1.515624-1.519531 2.179687-2.34375v2.871094h1.324219v-2.863281c.652344.832031 1.359375 1.570312 2.195312 2.351562l.898438-.960938c-1.019532-.953124-1.792969-1.785156-2.53125-2.828124h2.746094v-1.324219h-3.308594v-2.3125zm0 0"/></g></svg>

<svg xmlns="http://www.w3.org/2000/svg" xmlns:xlink="http://www.w3.org/1999/xlink" width="16px" height="16px" viewBox="0 0 16 16" version="1.1">
<g id="surface1">
     <defs>
  <style id="current-color-scheme" type="text/css">
   .ColorScheme-Text { color:#eeeeee; } .ColorScheme-Highlight { color:#424242; }
  </style>
 </defs>
<path style="fill:currentColor" class="ColorScheme-Text" d="M 5.292969 6.738281 C 5.269531 6.738281 5.246094 6.742188 5.21875 6.742188 C 5.210938 6.742188 5.203125 6.742188 5.199219 6.742188 C 5.179688 6.742188 5.164062 6.742188 5.148438 6.742188 C 5.140625 6.742188 5.132812 6.742188 5.121094 6.746094 C 5.109375 6.746094 5.09375 6.746094 5.078125 6.746094 C 5.070312 6.746094 5.058594 6.746094 5.050781 6.75 C 5.035156 6.75 5.023438 6.75 5.007812 6.75 C 5 6.753906 4.988281 6.753906 4.980469 6.753906 C 4.964844 6.753906 4.953125 6.757812 4.9375 6.757812 C 4.929688 6.757812 4.921875 6.757812 4.910156 6.761719 C 4.898438 6.761719 4.882812 6.761719 4.871094 6.765625 C 4.859375 6.765625 4.851562 6.765625 4.84375 6.769531 C 4.828125 6.769531 4.816406 6.773438 4.800781 6.773438 C 4.792969 6.777344 4.78125 6.777344 4.773438 6.777344 C 4.761719 6.78125 4.746094 6.78125 4.730469 6.785156 C 4.722656 6.785156 4.714844 6.789062 4.707031 6.789062 C 4.691406 6.792969 4.675781 6.792969 4.664062 6.796875 C 4.65625 6.796875 4.648438 6.800781 4.640625 6.800781 C 4.625 6.804688 4.609375 6.804688 4.59375 6.808594 C 4.585938 6.8125 4.582031 6.8125 4.574219 6.8125 C 4.554688 6.816406 4.539062 6.820312 4.519531 6.824219 C 4.515625 6.828125 4.511719 6.828125 4.507812 6.828125 C 4.441406 6.84375 4.378906 6.859375 4.3125 6.878906 C 4.3125 6.878906 4.308594 6.878906 4.308594 6.882812 C 4.289062 6.886719 4.269531 6.894531 4.25 6.898438 C 4.246094 6.898438 4.242188 6.902344 4.238281 6.902344 C 4.222656 6.90625 4.203125 6.914062 4.1875 6.917969 C 4.183594 6.921875 4.179688 6.921875 4.175781 6.921875 C 4.160156 6.929688 4.144531 6.933594 4.125 6.941406 C 4.121094 6.941406 4.117188 6.945312 4.113281 6.945312 C 4.097656 6.953125 4.082031 6.957031 4.066406 6.964844 C 4.0625 6.964844 4.058594 6.96875 4.054688 6.96875 C 4.039062 6.976562 4.019531 6.980469 4.003906 6.988281 C 4 6.992188 3.996094 6.992188 3.996094 6.992188 C 3.976562 7 3.960938 7.007812 3.945312 7.015625 C 3.941406 7.015625 3.9375 7.015625 3.9375 7.019531 C 3.917969 7.027344 3.902344 7.035156 3.882812 7.042969 L 3.878906 7.042969 C 3.859375 7.054688 3.839844 7.0625 3.824219 7.074219 C 3.671875 7.148438 3.527344 7.238281 3.402344 7.335938 C 3.386719 7.347656 3.371094 7.359375 3.355469 7.371094 C 3.339844 7.382812 3.324219 7.398438 3.308594 7.410156 C 2.894531 7.757812 2.644531 8.21875 2.644531 8.726562 L 2.644531 14.679688 L 3.96875 14.679688 L 3.96875 12.03125 L 6.613281 12.03125 L 6.613281 14.679688 L 7.9375 14.679688 L 7.9375 10.046875 L 6.613281 10.046875 L 6.613281 10.710938 L 3.96875 10.710938 L 3.96875 8.726562 C 3.96875 8.433594 4.34375 8.1875 4.867188 8.097656 C 4.878906 8.097656 4.886719 8.09375 4.898438 8.09375 C 5.023438 8.074219 5.15625 8.0625 5.292969 8.0625 C 5.429688 8.0625 5.5625 8.074219 5.6875 8.09375 C 5.695312 8.09375 5.707031 8.097656 5.71875 8.097656 C 5.800781 8.113281 5.878906 8.128906 5.953125 8.152344 L 5.953125 6.800781 C 5.949219 6.800781 5.949219 6.800781 5.945312 6.800781 C 5.9375 6.800781 5.929688 6.796875 5.921875 6.796875 C 5.90625 6.792969 5.890625 6.792969 5.875 6.789062 C 5.867188 6.789062 5.859375 6.785156 5.851562 6.785156 C 5.839844 6.78125 5.824219 6.78125 5.808594 6.777344 C 5.800781 6.777344 5.792969 6.777344 5.785156 6.773438 C 5.769531 6.773438 5.757812 6.769531 5.742188 6.769531 C 5.734375 6.765625 5.722656 6.765625 5.714844 6.765625 C 5.699219 6.761719 5.6875 6.761719 5.671875 6.761719 C 5.664062 6.757812 5.65625 6.757812 5.644531 6.757812 C 5.632812 6.757812 5.617188 6.753906 5.605469 6.753906 C 5.59375 6.753906 5.585938 6.753906 5.574219 6.75 C 5.5625 6.75 5.546875 6.75 5.535156 6.75 C 5.523438 6.746094 5.515625 6.746094 5.503906 6.746094 C 5.492188 6.746094 5.476562 6.746094 5.460938 6.746094 C 5.453125 6.742188 5.445312 6.742188 5.433594 6.742188 C 5.417969 6.742188 5.402344 6.742188 5.386719 6.742188 C 5.378906 6.742188 5.371094 6.742188 5.363281 6.742188 C 5.339844 6.742188 5.316406 6.738281 5.292969 6.738281 Z M 5.292969 6.738281 "/>
     <defs>
  <style id="current-color-scheme" type="text/css">
   .ColorScheme-Text { color:#eeeeee; } .ColorScheme-Highlight { color:#424242; }
  </style>
 </defs>
<path style="fill:currentColor" class="ColorScheme-Text" d="M 9.921875 1.449219 L 9.921875 3.761719 L 6.613281 3.761719 L 6.613281 5.085938 L 9.363281 5.085938 C 8.621094 6.121094 7.832031 6.910156 6.8125 7.929688 L 7.742188 8.859375 C 8.550781 8.050781 9.257812 7.339844 9.921875 6.515625 L 9.921875 9.386719 L 11.246094 9.386719 L 11.246094 6.523438 C 11.898438 7.355469 12.605469 8.09375 13.441406 8.875 L 14.339844 7.914062 C 13.320312 6.960938 12.546875 6.128906 11.808594 5.085938 L 14.554688 5.085938 L 14.554688 3.761719 L 11.246094 3.761719 L 11.246094 1.449219 Z M 9.921875 1.449219 "/>
</g>
</svg>
